public/images/logo.svg

<?xml version="1.0" encoding="UTF-8"?>
<svg width="220px" height="46px" viewBox="0 0 220 46" version="1.1" xmlns="http://www.w3.org/2000/svg" xmlns:xlink="http://www.w3.org/1999/xlink">
    <!-- Generator: sketchtool 49.1 (51147) - http://www.bohemiancoding.com/sketch -->
    <title>6821C388-D3FD-4BED-A071-0EDE63E511F2</title>
    <desc>Created with sketchtool.</desc>
    <defs></defs>
    <g id="Page-1" stroke="none" stroke-width="1" fill="none" fill-rule="evenodd">
        <g id="Home-Copy-3" transform="translate(-291.000000, -5244.000000)">
            <g id="PowerUpLogo03" transform="translate(291.000000, 5244.000000)">
                <path d="M67.3089255,21.4007326 C69.1949638,21.4007326 70.7778887,19.9129458 70.7778887,17.9615692 C70.7778887,16.1424893 69.1949638,14.7528225 67.3089255,14.7528225 L63.402132,14.7528225 L63.402132,21.4007326 L67.3089255,21.4007326 Z M59.0243902,11.3136591 C59.0243902,10.9829173 59.2938243,10.6852497 59.6637348,10.6852497 L67.5783595,10.6852497 C71.7203465,10.6852497 75.1219512,13.9926677 75.1219512,17.9940921 C75.1219512,22.0952904 71.7203465,25.4357825 67.6120388,25.4357825 L63.402132,25.4357825 L63.402132,33.2076634 C63.402132,33.5389565 63.0990187,33.8366241 62.7622262,33.8366241 L59.6637348,33.8366241 C59.2938243,33.8366241 59.0243902,33.5389565 59.0243902,33.2076634 L59.0243902,11.3136591 Z" id="Fill-1" fill="#FFFFFF"></path>
                <path d="M89.1157916,30.6291968 C93.3997176,30.6291968 96.9350899,27.1472601 96.9350899,22.8883671 C96.9350899,18.6289106 93.3997176,15.0793636 89.1157916,15.0793636 C84.8318656,15.0793636 81.3304928,18.6289106 81.3304928,22.8883671 C81.3304928,27.1472601 84.8318656,30.6291968 89.1157916,30.6291968 M89.1157916,10.6852497 C95.9156742,10.6852497 101.355014,16.1278885 101.355014,22.8883671 C101.355014,29.6494091 95.9156742,35.023874 89.1157916,35.023874 C82.3159091,35.023874 76.9105691,29.6494091 76.9105691,22.8883671 C76.9105691,16.1278885 82.3159091,10.6852497 89.1157916,10.6852497" id="Fill-3" fill="#FFFFFF"></path>
                <path d="M103.178585,11.8346268 C103.042799,11.3613539 103.314372,11.0233018 103.789625,11.0233018 L106.912714,11.0233018 C107.184287,11.0233018 107.45586,11.2599383 107.523753,11.4965747 L111.053636,24.9842901 L111.189988,24.9842901 L116.586936,11.057107 C116.654829,10.8542758 116.824562,10.6852497 117.164028,10.6852497 L117.775067,10.6852497 C118.114534,10.6852497 118.284267,10.8542758 118.35216,11.057107 L123.783054,24.9842901 L123.919406,24.9842901 L127.381396,11.4965747 C127.449289,11.2599383 127.720862,11.0233018 127.992435,11.0233018 L131.115524,11.0233018 C131.590777,11.0233018 131.86235,11.3613539 131.726564,11.8346268 L125.311218,34.5506011 C125.243324,34.8210428 124.971186,35.023874 124.700179,35.023874 L124.157033,35.023874 C123.851513,35.023874 123.647267,34.854848 123.579374,34.6520167 L117.503494,19.33882 L117.333761,19.33882 L111.325209,34.6520167 C111.223935,34.854848 111.087583,35.023874 110.748117,35.023874 L110.204971,35.023874 C109.933963,35.023874 109.661825,34.8210428 109.594497,34.5506011 L103.178585,11.8346268 Z" id="Fill-5" fill="#FFFFFF"></path>
                <path d="M134.742547,11.3142104 C134.742547,10.9829173 135.009967,10.6852497 135.378995,10.6852497 L149.011807,10.6852497 C149.380277,10.6852497 149.647696,10.9829173 149.647696,11.3142104 L149.647696,14.0262931 C149.647696,14.3570349 149.380277,14.6547025 149.011807,14.6547025 L139.096629,14.6547025 L139.096629,20.0783167 L147.370443,20.0783167 C147.705416,20.0783167 148.006891,20.3759843 148.006891,20.7067261 L148.006891,23.451883 C148.006891,23.8156989 147.705416,24.0802924 147.370443,24.0802924 L139.096629,24.0802924 L139.096629,29.8677225 L149.011807,29.8677225 C149.380277,29.8677225 149.647696,30.1653902 149.647696,30.4966832 L149.647696,33.2082147 C149.647696,33.5389565 149.380277,33.8366241 149.011807,33.8366241 L135.378995,33.8366241 C135.009967,33.8366241 134.742547,33.5389565 134.742547,33.2082147 L134.742547,11.3142104 Z" id="Fill-7" fill="#FFFFFF"></path>
                <path d="M164.471658,21.235913 C166.284843,21.235913 167.857486,19.7145007 167.857486,17.8623466 C167.857486,16.1094151 166.284843,14.6547025 164.471658,14.6547025 L158.897581,14.6547025 L158.897581,21.235913 L164.471658,21.235913 Z M154.417344,11.3142104 C154.417344,10.9829173 154.690946,10.6852497 155.06715,10.6852497 L164.847861,10.6852497 C168.951895,10.6852497 172.303523,13.8603709 172.303523,17.7967495 C172.303523,20.8390228 170.217306,23.3195863 167.241881,24.4771825 L171.92732,32.8774729 C172.166722,33.3074372 171.92732,33.8366241 171.345915,33.8366241 L167.754885,33.8366241 C167.447083,33.8366241 167.276081,33.6718044 167.207681,33.5389565 L162.659043,24.7748502 L158.862811,24.7748502 L158.862811,33.2082147 C158.862811,33.5389565 158.555579,33.8366241 158.213576,33.8366241 L155.06715,33.8366241 C154.690946,33.8366241 154.417344,33.5389565 154.417344,33.2082147 L154.417344,11.3142104 Z" id="Fill-9" fill="#FFFFFF"></path>
                <path d="M179.457995,11.3212516 C179.457995,10.9862497 179.766275,10.6852497 180.109381,10.6852497 L183.362886,10.6852497 C183.739674,10.6852497 184.013701,10.9862497 184.013701,11.3212516 L184.013701,24.9994727 C184.013701,27.8422506 186.0004,30.0824711 188.980449,30.0824711 C191.959926,30.0824711 193.980879,27.8422506 193.980879,25.0329171 L193.980879,11.3212516 C193.980879,10.9862497 194.254906,10.6852497 194.631694,10.6852497 L197.88577,10.6852497 C198.228304,10.6852497 198.536585,10.9862497 198.536585,11.3212516 L198.536585,25.2335838 C198.536585,30.3165822 194.39192,34.4302491 188.980449,34.4302491 C183.60266,34.4302491 179.457995,30.3165822 179.457995,25.2335838 L179.457995,11.3212516 Z" id="Fill-11" fill="#FFA4A4"></path>
                <path d="M212.186685,21.4007326 C214.072658,21.4007326 215.656089,19.9129458 215.656089,17.9615692 C215.656089,16.1424893 214.072658,14.7528225 212.186685,14.7528225 L208.280589,14.7528225 L208.280589,21.4007326 L212.186685,21.4007326 Z M203.902439,11.3136591 C203.902439,10.9829173 204.171864,10.6852497 204.542323,10.6852497 L212.45611,10.6852497 C216.598514,10.6852497 220,13.9926677 220,17.9940921 C220,22.0952904 216.598514,25.4357825 212.489788,25.4357825 L208.280589,25.4357825 L208.280589,33.2076634 C208.280589,33.5389565 207.977487,33.8366241 207.640145,33.8366241 L204.542323,33.8366241 C204.171864,33.8366241 203.902439,33.5389565 203.902439,33.2076634 L203.902439,11.3136591 Z" id="Fill-13" fill="#FFA4A4"></path>
                <path d="M45.9078591,22.5577494 C45.9078591,35.0155879 35.6308774,45.1154988 22.9539295,45.1154988 C10.2769817,45.1154988 0,35.0155879 0,22.5577494 C0,10.0999109 10.2769817,0 22.9539295,0 C35.6308774,0 45.9078591,10.0999109 45.9078591,22.5577494" id="Fill-15" fill="#FFFFFF"></path>
                <polygon id="Fill-17" fill="#FFA4A4" points="31.3990164 6.57142857 22.6495662 19.4221624 32.2785908 19.4221624 13.7412326 36.8463027 22.9261835 23.9145058 13.2 23.9145058"></polygon>
            </g>
        </g>
    </g>
</svg>

<svg width="220" height="46" xmlns="http://www.w3.org/2000/svg"><g fill="none" fill-rule="evenodd"><path d="M67.309 21.4c1.886 0 3.469-1.487 3.469-3.438 0-1.82-1.583-3.21-3.47-3.21h-3.906v6.649h3.907zm-8.285-10.086c0-.331.27-.629.64-.629h7.914c4.142 0 7.544 3.308 7.544 7.31 0 4.1-3.402 7.44-7.51 7.44h-4.21v7.773c0 .331-.303.629-.64.629h-3.098a.634.634 0 0 1-.64-.63V11.315zM89.116 30.63c4.284 0 7.82-3.483 7.82-7.742 0-4.26-3.536-7.809-7.82-7.809-4.284 0-7.786 3.55-7.786 7.81 0 4.258 3.502 7.74 7.786 7.74m0-19.944c6.8 0 12.239 5.443 12.239 12.203 0 6.761-5.44 12.136-12.24 12.136s-12.204-5.375-12.204-12.136c0-6.76 5.405-12.203 12.205-12.203M103.179 11.835c-.136-.474.135-.812.61-.812h3.124c.271 0 .543.237.61.474l3.53 13.487h.137l5.397-13.927c.068-.203.238-.372.577-.372h.611c.34 0 .51.17.577.372l5.431 13.927h.136l3.462-13.487c.068-.237.34-.474.611-.474h3.124c.475 0 .746.338.61.812l-6.415 22.716a.652.652 0 0 1-.61.473h-.544c-.305 0-.51-.17-.578-.372l-6.076-15.313h-.17l-6.008 15.313c-.101.203-.237.372-.577.372h-.543a.651.651 0 0 1-.61-.473l-6.416-22.716zM134.743 11.314c0-.331.267-.629.636-.629h13.633c.368 0 .636.298.636.63v2.711c0 .331-.268.629-.636.629h-9.915v5.423h8.273c.335 0 .637.298.637.629v2.745a.632.632 0 0 1-.637.628h-8.273v5.788h9.915c.368 0 .636.297.636.629v2.711c0 .331-.268.629-.636.629h-13.633a.632.632 0 0 1-.636-.629V11.314zM164.472 21.236c1.813 0 3.385-1.521 3.385-3.374 0-1.753-1.572-3.207-3.385-3.207h-5.574v6.58h5.574zm-10.055-9.922c0-.331.274-.629.65-.629h9.78c4.105 0 7.457 3.175 7.457 7.112 0 3.042-2.087 5.523-5.062 6.68l4.685 8.4c.24.43 0 .96-.581.96h-3.591c-.308 0-.479-.165-.547-.298l-4.549-8.764h-3.796v8.433c0 .331-.307.629-.65.629h-3.146a.639.639 0 0 1-.65-.629V11.314z" fill="#FFF"/><path d="M179.458 11.321c0-.335.308-.636.651-.636h3.254c.377 0 .65.301.65.636V25c0 2.843 1.987 5.083 4.967 5.083 2.98 0 5-2.24 5-5.05v-13.71c0-.336.275-.637.652-.637h3.254c.342 0 .65.301.65.636v13.913c0 5.083-4.144 9.196-9.556 9.196-5.377 0-9.522-4.113-9.522-9.196V11.32zM212.187 21.4c1.886 0 3.47-1.487 3.47-3.438 0-1.82-1.584-3.21-3.47-3.21h-3.906v6.649h3.906zm-8.285-10.086c0-.331.27-.629.64-.629h7.914c4.143 0 7.544 3.308 7.544 7.31 0 4.1-3.401 7.44-7.51 7.44h-4.21v7.773c0 .331-.303.629-.64.629h-3.098a.634.634 0 0 1-.64-.63V11.315z" fill="#FFA4A4"/><path d="M45.908 22.558c0 12.458-10.277 22.557-22.954 22.557C10.277 45.115 0 35.015 0 22.558 0 10.1 10.277 0 22.954 0 35.63 0 45.908 10.1 45.908 22.558" fill="#FFF"/><path fill="#FFA4A4" d="M31.399 6.571l-8.75 12.851h9.63L13.74 36.846l9.185-12.931H13.2z"/></g></svg>
